!!!COM: Palestrina, Giovanni Perluigi da
!!!OPR: Missa Sicut lilium inter spinas
!!!OTL: Kyrie
**kern	**kern	**kern	**kern	**kern
*Ibass	*Itenor	*Itenor	*Icalto	*Icant
!Bassus	!Tenor 2	!Tenor 1	!Altus	!Cantus
*clefF4	*clefGv2	*clefGv2	*clefG2	*clefG2
*k[]	*k[]	*k[]	*k[]	*k[]
*A:aeo	*A:aeo	*A:aeo	*A:aeo	*A:aeo
*M4/2	*M4/2	*M4/2	*M4/2	*M4/2
=1	=1	=1	=1	=1
0r	0r	0r	0r	0ee
=2	=2	=2	=2	=2
0r	0r	0r	0r	1ff
.	.	.	.	[1ee
=3	=3	=3	=3	=3
0r	0r	0r	0a	2ee]
.	.	.	.	2ee
.	.	.	.	2cc
.	.	.	.	2cc
=4	=4	=4	=4	=4
1r	0r	0r	1b-	2dd
.	.	.	.	1ff
[1A	.	.	[1a	.
.	.	.	.	4ee
.	.	.	.	4dd
=5	=5	=5	=5	=5
1A]	2r	0r	2a]	2cc
.	2c	.	2a	2ee
1B-	1d	.	2f	1dd
.	.	.	2g	.
=6	=6	=6	=6	=6
1.A	2f	0r	2a	2cc
.	4e	.	2.cc	2.ee
.	4d	.	.	.
.	2c	.	.	.
.	.	.	4b	4dd
2A	2e	.	[2a	[2cc
=7	=7	=7	=7	=7
2F	1d	0r	2a]	2cc]
2G	.	.	4g	2b
.	.	.	4f	.
2A	2c	.	2.e	2.cc
[2c	[2e	.	.	.
.	.	.	4f	4dd
=8	=8	=8	=8	=8
4c]	4e]	0e	2g	0ee
4B	4d	.	.	.
1A	4c	.	2a	.
.	4B	.	.	.
.	2A	.	2cc	.
2G	2B	.	[2b	.
=9	=9	=9	=9	=9
2F	2c	1f	4b]	0r
.	.	.	4a	.
2D	2d	.	1a	.
1E	1B	[1e	.	.
.	.	.	2g#	.
=10	=10	=10	=10	=10
0A	2.c	2e]	0a	0ee
.	.	2e	.	.
.	4d	.	.	.
.	1e	2c	.	.
.	.	2c	.	.
=11	=11	=11	=11	=11
1D	2.d	2d	2r	0ff
.	.	1f	2a	.
.	8c	.	.	.
.	8B	.	.	.
2.F	1A	.	2a	.
.	.	4e	[2cc	.
4G	.	4d	.	.
=12	=12	=12	=12	=12
1A	0r	2.c	4cc]	1.ee
.	.	.	4b	.
.	.	.	1a	.
.	.	8B	.	.
.	.	8A	.	.
1E	.	1B	.	.
.	.	.	2g#	2ee
=13	=13	=13	=13	=13
1F	1r	2.A	1a	2cc
.	.	.	.	2dd
.	.	4B	.	.
1C	[1e	4c	2.g	2ee
.	.	4d	.	.
.	.	4e	.	[2gg
.	.	4f	4a	.
=14	=14	=14	=14	=14
0r	1e]	1g	2b	4gg]
.	.	.	.	4ff
.	.	.	2.cc	4ee
.	.	.	.	4dd
.	1f	1a	.	[1cc
.	.	.	4b	.
.	.	.	2a	.
=15	=15	=15	=15	=15
0E	1.e	0r	2g	2cc]
.	.	.	1a	4b
.	.	.	.	4a
.	.	.	.	1b
.	2e	.	2g#	.
=16	=16	=16	=16	=16
1F	2c	2r	1a	2.a
.	2d	2a	.	.
.	.	.	.	4b
[1E	2e	2g	1r	2cc
.	[2g	[2e	.	2b
=17	=17	=17	=17	=17
2E]	4g]	4e]	0r	4g
.	4f	4f	.	4a
2E	1e	1g	.	4b
.	.	.	.	4g
2C	.	.	.	1a
2D	4d	2f	.	.
.	4c	.	.	.
=18	=18	=18	=18	=18
1E	1B	2.e	2r	2g
.	.	.	2g	2b
.	.	4d	.	.
1A	1r	4c	2a	2.cc
.	.	4B	.	.
.	.	4A	[2cc	.
.	.	4B	.	4dd
=19	=19	=19	=19	=19
1A	2r	4c	2cc]	1ee
.	.	4d	.	.
.	2c	4e	4b	.
.	.	4f	4a	.
2G	2d	2g	2b-	1r
2A	[2f	2c	[2a	.
=20	=20	=20	=20	=20
1B-	2f]	1d	4a]	1r
.	.	.	8g	.
.	.	.	8f	.
.	4e	.	2g	.
.	4d	.	.	.
1A	4c	1e	[1a	2r
.	4d	.	.	.
.	2e	.	.	2cc
=21	=21	=21	=21	=21
2.D	2f	1d	2a]	2dd
.	1a	.	2f	1ff
4E	.	.	.	.
2F	.	1r	2a	.
2G	4g	.	2b-	4ee
.	4f	.	.	4dd
=22	=22	=22	=22	=22
1A	1e	2r	[0a	4cc
.	.	.	.	4dd
.	.	2c	.	2ee
2.D	2f	2d	.	2.dd
.	[2d	[2f	.	.
4E	.	.	.	4cc
=23	=23	=23	=23	=23
4F	2d]	2f]	1a]	4a
4G	.	.	.	4b
1A	2c	4e	.	1cc
.	.	4d	.	.
.	2A	4c	[1e	.
.	.	4d	.	.
2G#	2B	[2e	.	[2b
=24	=24	=24	=24	=24
1A	2.c	4e]	0e]	4b]
.	.	4A	.	4a
.	.	2c	.	1a
.	4d	.	.	.
1E	2e	1B	.	.
.	2B	.	.	2g#
=25	=25	=25	=25	=25
0A	0c#	0A	0e	0a
=26	=26	=26	=26	=26
1.A	0r	1e	0r	0r
.	.	2f	.	.
2F	.	[2d	.	.
=27	=27	=27	=27	=27
2G	0r	2d]	0r	0r
2A	.	2c	.	.
4D	.	1f	.	.
4E	.	.	.	.
4F	.	.	.	.
4G	.	.	.	.
=28	=28	=28	=28	=28
4A	0r	2.e	0r	0r
4B	.	.	.	.
4c	.	.	.	.
4A	.	4f	.	.
4B	.	2g	.	.
4c	.	.	.	.
[2d	.	2f	.	.
=29	=29	=29	=29	=29
2d]	0r	1e	1.a	1ee
2c#	.	.	.	.
1d	.	2r	.	2ff
.	.	2d	2f	[2dd
=30	=30	=30	=30	=30
0r	0r	2e	2g	2dd]
.	.	2.f	2a	2cc
.	.	.	4d	1ff
.	.	4e	4e	.
.	.	2d	4f	.
.	.	.	4g	.
=31	=31	=31	=31	=31
0r	1r	1A	4a	2.ee
.	.	.	4b	.
.	.	.	4cc	.
.	.	.	4a	4ff
.	1e	1r	2b	4gg
.	.	.	.	4ff
.	.	.	2cc	4ee
.	.	.	.	4dd
=32	=32	=32	=32	=32
0r	2f	0r	2.a	2cc
.	1d	.	.	2.ff
.	.	.	4g	.
.	.	.	4a	.
.	.	.	4b	4dd
.	2c	.	[2cc	2ee
=33	=33	=33	=33	=33
0r	1f	1r	4cc]	4a
.	.	.	4b	4b
.	.	.	1a	4cc
.	.	.	.	4a
.	1e	2r	.	1b
.	.	[2e	2g#	.
=34	=34	=34	=34	=34
1A	2r	2e]	1a	2cc
.	2a	2c	.	2ee
2B-	2f	2.d	2r	[1dd
[2G	[2g	.	[2b-	.
.	.	4c	.	.
=35	=35	=35	=35	=35
2G]	2g]	4d	2b-]	1dd]
.	.	4e	.	.
2F	2a	2.f	2a	.
1B-	4d	.	2.f	1r
.	4e	4e	.	.
.	4f	[2d	.	.
.	4d	.	4g	.
=36	=36	=36	=36	=36
0A	1e	2d]	4a	2r
.	.	.	4b	.
.	.	2c	2.cc	1ee
.	1r	2e	.	.
.	.	.	4b	.
.	.	[2f	[2a	2cc
=37	=37	=37	=37	=37
0r	1r	2f]	2a]	2dd
.	.	2e	2g	2ee
.	2r	2d	2f	4a
.	.	.	.	4b
.	[2e	4c	4e	4cc
.	.	4B	4d	4dd
=38	=38	=38	=38	=38
1r	2e]	2A	2c	1ee
.	2c	1a	2cc	.
2r	2d	.	1b	2ff
2E	2e	2g#	.	4ee
.	.	.	.	4dd
=39	=39	=39	=39	=39
2F	2A	2a	1a	2cc
1D	2a	2.f	.	2dd
.	2f	.	1r	2a
.	.	4d	.	.
2C	2g	2e	.	[2cc
=40	=40	=40	=40	=40
1F	2a	1A	1r	4cc]
.	.	.	.	4b
.	2d	.	.	1a
1E	1e	1B	2r	.
.	.	.	2e	2g#
=41	=41	=41	=41	=41
2.D	2r	1d	2f	2a
.	2a	.	1d	1ff
4E	.	.	.	.
4F	2a	[1A	.	.
4G	.	.	.	.
2A	2a	.	2c	[2ee
=42	=42	=42	=42	=42
1D	1a	1A]	1f	2ee]
.	.	.	.	1dd
1A	1a	2r	1e	.
.	.	2a	.	2cc#
=43	=43	=43	=43	=43
2B-	0r	2f	2d	2.dd
1G	.	1g	1b-	.
.	.	.	.	4cc
.	.	.	.	4dd
.	.	.	.	4ee
2F	.	2c	2a	[2ff
=44	=44	=44	=44	=44
1B-	1r	1d	2f	4ff]
.	.	.	.	4ee
.	.	.	2g	1dd
1A	2r	1e	1a	.
.	[2a	.	.	2cc#
=45	=45	=45	=45	=45
1D	2a]	1d	2r	[0dd
.	2f#	.	2a	.
2G	2g	2r	2b-	.
2F#	2a	2A	2a	.
=46	=46	=46	=46	=46
0G	1d	2B-	2.g	1dd_
.	.	2G	.	.
.	.	.	4a	.
.	1g	1d	1b-	1dd_
=47	=47	=47	=47	=47
0D	0f#	0d	0a	0dd]
=48	=48	=48	=48	=48
0d	0f#	1r	0a	0r
.	.	[1d	.	.
=49	=49	=49	=49	=49
1B	1g#	1d]	1b	0r
1A	[1a	1e	1cc	.
=50	=50	=50	=50	=50
1d	2a]	2f	2a	0r
.	2f	2d	2b	.
2c	2g	2e	[1cc	.
4F	[2a	[2f	.	.
4G	.	.	.	.
=51	=51	=51	=51	=51
4A	2a]	2f]	1cc]	1r
4B	.	.	.	.
2c	2g	2e	.	.
1d	2f	2d	2.a	[1dd
.	2d	[2f	.	.
.	.	.	4g	.
=52	=52	=52	=52	=52
1D	[0a	4f]	1f	1dd]
.	.	4e	.	.
.	.	1d	.	.
1A	.	.	1e	1ee
.	.	2c#	.	.
=53	=53	=53	=53	=53
1D	1a]	2.d	2d	1ff
.	.	.	2a	.
.	.	4c	.	.
1r	1r	2B	2b	2dd
.	.	2A	2cc	2ee
=54	=54	=54	=54	=54
0r	0d	0r	2a	2.ff
.	.	.	2.b	.
.	.	.	.	4ee
.	.	.	.	2dd
.	.	.	4a	.
.	.	.	[2a	2cc
=55	=55	=55	=55	=55
0r	1e	1r	2a]	1b
.	.	.	2g#	.
.	1f	2r	2.a	[1a
.	.	[2d	.	.
.	.	.	4g	.
=56	=56	=56	=56	=56
1r	2d	2d]	2f	0a]
.	2e	2c#	2e	.
[1D	2.f	4d	4d	.
.	.	4e	4c#	.
.	.	4f	4d	.
.	4e	4g	4e	.
=57	=57	=57	=57	=57
1D]	2d	2a	4f	0r
.	.	.	4g	.
.	2c	2A	2a	.
1E	2B	1e	2g	.
.	4A	.	[2cc	.
.	4G	.	.	.
=58	=58	=58	=58	=58
1F	4A	2c	4cc]	0r
.	4B	.	4b	.
.	2c	1f	1a	.
2D	1B	.	.	.
2E	.	4e	2g#	.
.	.	4d	.	.
=59	=59	=59	=59	=59
2.F	1A	2c	1a	2r
.	.	2f	.	2.a
4G	.	.	.	.
1A	1r	[1e	2r	.
.	.	.	.	4b
.	.	.	2a	2cc
=60	=60	=60	=60	=60
2r	0r	1e]	2b	2g
2.A	.	.	2.cc	2a
.	.	1r	.	2e
4B	.	.	4b	.
2c	.	.	4g	2ee
.	.	.	4a	.
=61	=61	=61	=61	=61
2G	2r	0r	2b	2dd
2A	2e	.	1a	2cc
1E	2e	.	.	2.b
.	2e	.	2g#	.
.	.	.	.	4cc
=62	=62	=62	=62	=62
0D	2.f	2r	[0a	2dd
.	.	2.d	.	1ff
.	4e	.	.	.
.	4d	.	.	.
.	4c#	4e	.	.
.	2d	2f	.	2ff
=63	=63	=63	=63	=63
0r	2A	2c	1a_	2ee
.	2f	2d	.	1dd
.	1e	1A	1a_	.
.	.	.	.	2cc#
=64	=64	=64	=64	=64
2r	2.d	2.f	0a]	2dd
2.d	.	.	.	1ff
.	4e	4g	.	.
.	4f	2a	.	.
4e	4g	.	.	.
2f	2a	2d	.	2ff
=65	=65	=65	=65	=65
2c	2A	2e	2r	2ee
2d	2d	2f	2.a	2dd
1A	2.c	1e	.	2ee
.	.	.	4b	.
.	.	.	2cc	2a
.	8B	.	.	.
.	8A	.	.	.
=66	=66	=66	=66	=66
2r	1e	2r	2g	2b
2.A	.	2.c	2a	2.cc
.	1c	.	2.e	.
4B	.	4d	.	4b
2c	.	2e	.	4g
.	.	.	4f	4a
=67	=67	=67	=67	=67
2G	2B	2d	4g	2b
.	.	.	4f	.
2A	2e	2c	4e	1a
.	.	.	4d	.
1E	2r	1B	2.e	.
.	[2e	.	.	2g#
.	.	.	4d	.
=68	=68	=68	=68	=68
2r	2e]	2A	2c	0a
2.D	2d	2.f	2d	.
.	1f	.	2.A	.
4E	.	4g	.	.
2F	.	2a	.	.
.	.	.	4B	.
=69	=69	=69	=69	=69
2C	2e	2g	2c	2r
2D	1d	2f	1A	2dd
1A	.	1e	.	1ee
.	2c#	.	2a	.
=70	=70	=70	=70	=70
0D	0d	2.d	0a	2.ff
.	.	4e	.	4ee
.	.	1f	.	1dd
=71	=71	=71	=71	=71
0A	0c#	0e	0a	0ee
==	==	==	==	==
*-	*-	*-	*-	*-
!!!CDT: 1525/^1526/-1594/2/2
!!!OCY: Italia
!!!AGN: Mass (Parody)
!!!AST: renaissance, vocal
!!!ASW: Motet 1569 (Palestrina)
!!!PWK: Masses, Book 5
!!!RNB: Cadence finals: D
!!!YOR: Le Opere Complete, v. 15, p. 130
!!!YOO: Rome, Italy: Fratelli Scalera
!!!END: 1992//
!!!EED: John Miller
!!!YEC: Copyright 2000, John Miller
!!!YEN: United States of America
!!!YEM: Rights to all derivative electronic formats reserved.
!!!YEM: Refer to licensing agreement for further details.
!!!YEM: This file must be accompanied by the licensing agreement.
!!!YEM: A copy of the licensing agreement may be found at http://www.music-cog.ohio-state.edu/HumdrumDatabases/Palestrina/license.txt
!!!EMD: converted to Humdrum by Bret Aarden
